X: 43505
T: Yesterday Morning
R: jig
M: 6/8
K: Gmajor
|:B/A/|DGG GAG|FDF ABc|BdB cAc|BGA FGE|
DGG GAG|FDF ABc|BdB c2B|AGF G2:|
|:c|Bdd ded|efg d2c|BGB cAc|BGA FGE|
DGG GAG|FDF ABc|BdB c2B|AGF G2:|

